X: 170
T: Song qinglang
%%abc-version 2.0
%%abcx-abcm2ps-target-version 5.9.1 (29 Sep 2008)
%%abc-creator hum2abc beta
%%abcx-conversion-date 2013/10/02 07:52:29
%%abc-edited-by Helmut Schaffrath
%%humdrum-veritas 3355040245
%%humdrum-veritas-data 641490817
%%continueall 1
%%barnumbers 0
L: 1/8
M: 2/4
K: F
d f c c [I:setbarnb 1]| 
d f c c | 
d f c A | 
G2G2 | 
G Gc2 | 
G A/ G/ F E | 
G G F D | 
C2C2 | 
F DF2 | 
G c G c | 
G c G F | 
E2E2 | 
G G c c | 
f f d c | 
F/ F/ B/ A/G2 | 
F D F D | 
C2C2 |]  



